svgs/regular/square-rss.svg

<svg xmlns="http://www.w3.org/2000/svg" viewBox="0 0 448 512"><!--! Font Awesome Pro 6.0.0-alpha3 by @fontawesome - https://fontawesome.com License - https://fontawesome.com/license (Commercial License) --><path d="M121 112C107.9 111.2 96.58 121.8 96.02 135C95.47 148.3 105.8 159.4 119 159.1c106.4 4.469 196.6 94.66 201 201C320.6 373.9 331.2 384 343.1 384c.3438 0 .6719 0 1.016-.0313c13.25-.5313 23.53-11.72 22.98-24.97C362.5 228.3 251.7 117.5 121 112zM121.6 208.1c-13.11-.4375-24.66 9.125-25.52 22.38c-.8594 13.22 9.172 24.66 22.39 25.5c54.69 3.562 102.1 50.94 105.6 105.6C224.9 374.3 235.4 384 247.1 384c.5313 0 1.062-.0313 1.594-.0625c13.22-.8438 23.25-12.28 22.39-25.5C266.9 280.6 199.4 213.1 121.6 208.1zM128 320c-8.189 0-16.38 3.121-22.63 9.371c-12.5 12.5-12.5 32.76 0 45.26C111.6 380.9 119.8 384 128 384s16.38-3.121 22.63-9.371c12.5-12.5 12.5-32.76 0-45.26C144.4 323.1 136.2 320 128 320zM384 32H64C28.65 32 0 60.66 0 96v320c0 35.34 28.65 64 64 64h320c35.35 0 64-28.66 64-64V96C448 60.66 419.3 32 384 32zM400 416c0 8.82-7.178 16-16 16H64c-8.822 0-16-7.18-16-16V96c0-8.82 7.178-16 16-16h320c8.822 0 16 7.18 16 16V416z"/></svg>

<svg xmlns="http://www.w3.org/2000/svg" viewBox="0 0 448 512"><!-- Font Awesome Pro 6.0.0-alpha2 by @fontawesome - https://fontawesome.com License - https://fontawesome.com/license (Commercial License) --><path d="M121 112.031C107.875 111.219 96.578 121.75 96.016 135C95.469 148.25 105.75 159.438 119 159.969C225.391 164.437 315.562 254.625 320.016 361C320.562 373.906 331.188 384 343.984 384C344.328 384 344.656 384 345 383.969C358.25 383.437 368.531 372.25 367.984 359C362.516 228.281 251.719 117.5 121 112.031ZM121.562 208.062C108.453 207.625 96.906 217.187 96.047 230.438C95.187 243.656 105.219 255.094 118.437 255.938C173.125 259.5 220.5 306.875 224.047 361.562C224.875 374.25 235.438 384 247.969 384C248.5 384 249.031 383.969 249.562 383.938C262.781 383.094 272.812 371.656 271.953 358.438C266.891 280.562 199.422 213.125 121.562 208.062ZM128 320C119.811 320 111.621 323.121 105.373 329.371C92.877 341.871 92.877 362.129 105.373 374.629C111.621 380.879 119.811 384 128 384S144.379 380.879 150.627 374.629C163.125 362.129 163.125 341.871 150.627 329.371C144.379 323.121 136.189 320 128 320ZM384 32H64C28.654 32 0 60.656 0 96V416C0 451.344 28.654 480 64 480H384C419.346 480 448 451.344 448 416V96C448 60.656 419.346 32 384 32ZM400 416C400 424.82 392.822 432 384 432H64C55.178 432 48 424.82 48 416V96C48 87.18 55.178 80 64 80H384C392.822 80 400 87.18 400 96V416Z"/></svg>
